docs/public/svg/integrations/flutter.svg

<svg fill="none" height="44" viewBox="0 0 44 44" width="44" xmlns="http://www.w3.org/2000/svg"><path d="m9.89282 18.0063h31.3277v24.4208h-31.3277z" fill="none"/><path d="m37.0631 20.0376h-13.3575l-11.6861 11.6889 6.6774 6.6773z" fill="#54c5f8"/><path d="m8.68014 28.3864-6.68014-6.6801 21.7063-21.7063h13.3575z" fill="#54c5f8"/><path d="m18.6975 38.4039 5.0087 5.0087h13.3575l-11.6888-11.686z" fill="#01579b"/><path d="m18.6975 38.4039 9.906-3.4292-3.2286-3.2481z" fill="none"/><path d="m18.6966 25.0456-6.6776 6.6775 6.6776 6.6776 6.6775-6.6776z" fill="#29b6f6"/><path d="m37.0638 20.0376-11.6861 11.6861 11.6861 11.6889h-13.3575l-5.0087-5.0087-6.6802-6.6802 11.6889-11.6861zm-13.3575-20.0376-21.7063 21.7063 6.68014 6.6801 28.38366-28.3864z" fill="none"/></svg>

<svg width="44" height="44" viewBox="0 0 44 44" fill="none" xmlns="http://www.w3.org/2000/svg" xmlns:xlink="http://www.w3.org/1999/xlink">
  <g clip-path="url(#clip0)">
    <rect x="9.89282" y="18.0063" width="31.3277" height="24.4208" fill="url(#pattern0)"/>
    <path d="M37.0631 20.0376H23.7056L12.0195 31.7265L18.6969 38.4038L37.0631 20.0376Z" fill="#54C5F8"/>
    <path d="M8.68014 28.3864L2 21.7063L23.7063 0H37.0638L8.68014 28.3864Z" fill="#54C5F8"/>
    <path d="M18.6975 38.4039L23.7062 43.4126H37.0637L25.3749 31.7266L18.6975 38.4039Z" fill="#01579B"/>
    <path d="M18.6975 38.4039L28.6035 34.9747L25.3749 31.7266L18.6975 38.4039Z" fill="url(#paint0_linear)"/>
    <path d="M18.6966 25.0456L12.019 31.7231L18.6966 38.4007L25.3741 31.7231L18.6966 25.0456Z" fill="#29B6F6"/>
    <path d="M37.0638 20.0376L25.3777 31.7237L37.0638 43.4126H23.7063L18.6976 38.4039L12.0174 31.7237L23.7063 20.0376H37.0638ZM23.7063 0L2 21.7063L8.68014 28.3864L37.0638 0H23.7063Z" fill="url(#paint1_radial)"/>
  </g>
</svg>
